build/category/ChipSolid.svg

<svg xmlns="http://www.w3.org/2000/svg" fill="none" viewBox="0 0 24 24" focusable="false"><path d="M0 0H24V24H0z"/><path fill="#74767B" fill-rule="evenodd" d="M11.3501 5.94565L11.3501 2.94565C11.3501 2.58667 11.6411 2.29565 12.0001 2.29565C12.3591 2.29565 12.6501 2.58667 12.6501 2.94565L12.6501 5.94565L14.3501 5.94575L14.3501 3.94563C14.3501 3.58665 14.6411 3.29563 15.0001 3.29563C15.3591 3.29563 15.6501 3.58665 15.6501 3.94563L15.6501 6.01636C16.7852 6.26711 17.6788 7.16075 17.9295 8.29585L20.0001 8.29585C20.3591 8.29585 20.6501 8.58686 20.6501 8.94585C20.6501 9.30483 20.3591 9.59585 20.0001 9.59585L18.0001 9.59585L18.0001 11.2958L21.0001 11.2958C21.3591 11.2958 21.6501 11.5869 21.6501 11.9458C21.6501 12.3048 21.3591 12.5958 21.0001 12.5958L18.0001 12.5958L18.0001 14.2959L20.0001 14.2958C20.3591 14.2958 20.6501 14.5869 20.6501 14.9458C20.6501 15.3048 20.3591 15.5958 20.0001 15.5958L17.9294 15.5958C17.6787 16.7309 16.7851 17.6244 15.6501 17.8751L15.6501 19.9457C15.6501 20.3046 15.3591 20.5957 15.0001 20.5957C14.6411 20.5957 14.3501 20.3046 14.3501 19.9457L14.3501 17.9458L12.6501 17.9458L12.6501 20.9457C12.6501 21.3046 12.3591 21.5957 12.0001 21.5957C11.6411 21.5957 11.3501 21.3046 11.3501 20.9457L11.3501 17.9458L9.6501 17.9458L9.6501 19.9457C9.6501 20.3046 9.35908 20.5957 9.0001 20.5957C8.64111 20.5957 8.3501 20.3046 8.3501 19.9457L8.3501 17.8752C7.21506 17.6244 6.32146 16.7309 6.0707 15.5958L4.00008 15.5958C3.6411 15.5958 3.35008 15.3048 3.35008 14.9459C3.35008 14.5869 3.6411 14.2958 4.00008 14.2958L6.00007 14.2958L6.00007 12.5958L3.0001 12.5958C2.64111 12.5958 2.3501 12.3048 2.3501 11.9459C2.3501 11.5869 2.64111 11.2959 3.0001 11.2959L6.00007 11.2958L6.00007 9.59585L4.00008 9.59585C3.6411 9.59585 3.35008 9.30484 3.35008 8.94585C3.35008 8.58686 3.6411 8.29585 4.00008 8.29585L6.07066 8.29585C6.32136 7.16073 7.21499 6.26708 8.3501 6.01635L8.3501 3.94563C8.3501 3.58665 8.64111 3.29563 9.0001 3.29563C9.35908 3.29563 9.6501 3.58665 9.6501 3.94563L9.6501 5.94575L11.3501 5.94565ZM14.4001 14.9458C14.7314 14.9458 15.0001 14.6772 15.0001 14.3458L15.0001 9.54574C15.0001 9.21437 14.7314 8.94574 14.4001 8.94574L9.6 8.94574C9.26863 8.94574 9 9.21437 9 9.54574L9 14.3458C9 14.6772 9.26863 14.9458 9.6 14.9458L14.4001 14.9458ZM13.7001 13.3458C13.7001 13.5115 13.5657 13.6458 13.4001 13.6458L10.6 13.6458C10.4343 13.6458 10.3 13.5115 10.3 13.3458L10.3 10.5457C10.3 10.3801 10.4343 10.2457 10.6 10.2457L13.4001 10.2457C13.5657 10.2457 13.7001 10.3801 13.7001 10.5457L13.7001 13.3458Z"/></svg>

<svg xmlns="http://www.w3.org/2000/svg" fill="none" viewBox="0 0 24 24" focusable="false"><path fill="#74767B" fill-rule="evenodd" d="M11.35 5.94v-3c0-.36.29-.65.65-.65.35 0 .64.29.64.65v3h1.71v-2c0-.36.29-.65.65-.65.35 0 .64.29.64.65v2.07c1.14.25 2.03 1.15 2.28 2.28H20c.35 0 .65.29.65.65s-.3.65-.65.65h-2v1.7h3c.35 0 .65.29.65.65s-.3.65-.65.65h-3v1.7h2c.35 0 .65.29.65.65s-.3.65-.65.65h-2.08a2.99 2.99 0 0 1-2.28 2.28v2.07c0 .36-.29.65-.64.65-.36 0-.65-.29-.65-.65v-2h-1.71v3c0 .36-.29.65-.64.65-.36 0-.65-.29-.65-.65v-3H9.64v2c0 .36-.29.65-.64.65-.36 0-.65-.29-.65-.65v-2.07a2.99 2.99 0 0 1-2.28-2.28H4c-.36 0-.65-.29-.65-.65s.29-.65.65-.65h2v-1.7H3c-.36 0-.65-.29-.65-.65s.29-.65.65-.65h3v-1.7H4c-.36 0-.65-.29-.65-.65s.29-.65.65-.65h2.07a3 3 0 0 1 2.28-2.28V3.94c0-.36.29-.65.65-.65.35 0 .64.29.64.65v2zm3.04 9c.34 0 .61-.27.61-.6v-4.8c0-.33-.27-.6-.61-.6H9.6c-.34 0-.6.27-.6.6v4.8c0 .33.26.6.6.6zm-1-1.3c.17 0 .31-.13.31-.3v-2.8c0-.16-.14-.3-.31-.3H10.6a.31.31 0 0 0-.31.3v2.8c0 .17.14.3.31.3z"/></svg>
